X:40
T:On Jordan's Bank the Baptist's Cry
%%stretchlast false
M:3/4
L:1/4
K:C clef=C1
"^I"[CEGc] "^vi"[A,EAc]2 | "^V"[G,GBd] "^I"[CGce] "^Imaj7³"[B,Gce] | "^IV¹"[A,Ccf] "^I²"[G,Gce] "^IVmaj7"[F,Ace] | "^V"[G,GBd] "^I"[CEc]2 | "^IV"[FAc] "^I¹"[Ecg] "^ii"[Dcfg] | "^I"[CGeg] "^V¹"[B,Gdg] [B,Gda] | "^V"[G,Gdb] "^I"[CGec']2 | "^IV²"[CAfc'] "^I"[CGec']2 | "^V¹"[B,Gdg] "^vi"[A,Acc'] "^vi7³"[G,Aec'] | "^II7¹"[^F,Adc'] "^V"[G,Gdb] "^V7"[G,Fdb] | "^I"[CEcg] "^IV"[F,FAa]2 | "^IV¹"[A,Fca] "^I"[CEcg]2 | "^ii"[DFAf] "^V¹"[B,Ddg]2 | "^I"[CGce] "^V"[G,GBd] "^V7³"[F,GBd] | "^I¹"[E,Gce] "^IV"[F,FAc] "^IVmaj7"[F,EAc] | "^V"[G,DGB] "^I"[CEGc]2 |]
